src/assets/duotone/PauseCircle.svg

<svg width="24" height="24" viewBox="0 0 24 24"  xmlns="http://www.w3.org/2000/svg">
<path opacity="0.4" d="M11.9702 22C17.4931 22 21.9702 17.5228 21.9702 12C21.9702 6.47715 17.4931 2 11.9702 2C6.44737 2 1.97021 6.47715 1.97021 12C1.97021 17.5228 6.44737 22 11.9702 22Z" />
<path d="M10.72 15.03V8.97005C10.72 8.49005 10.52 8.30005 10.01 8.30005H8.71C8.2 8.30005 8 8.49005 8 8.97005V15.03C8 15.51 8.2 15.7 8.71 15.7H10C10.52 15.7 10.72 15.51 10.72 15.03Z" />
<path d="M16 15.03V8.97005C16 8.49005 15.8 8.30005 15.29 8.30005H14C13.49 8.30005 13.29 8.49005 13.29 8.97005V15.03C13.29 15.51 13.49 15.7 14 15.7H15.29C15.8 15.7 16 15.51 16 15.03Z" />
</svg>

<?xml version="1.0" encoding="UTF-8"?>
<svg width="24" height="24" viewBox="0 0 24 24" xmlns="http://www.w3.org/2000/svg">
 <path d="m11.97 22c5.5229 0 10-4.4772 10-10 0-5.5228-4.4771-10-10-10-5.5228 0-10 4.4772-10 10 0 5.5228 4.4772 10 10 10z" opacity=".4"/>
 <path d="m10.72 15.03v-6.06c0-0.48-0.2-0.67-0.71-0.67h-1.3c-0.51 0-0.71 0.19-0.71 0.67v6.06c0 0.48 0.2 0.67 0.71 0.67h1.29c0.52 0 0.72-0.19 0.72-0.67z"/>
 <path d="m16 15.03v-6.06c0-0.48-0.2-0.67-0.71-0.67h-1.29c-0.51 0-0.71 0.19-0.71 0.67v6.06c0 0.48 0.2 0.67 0.71 0.67h1.29c0.51 0 0.71-0.19 0.71-0.67z"/>
</svg>
